src/lib/packages/icons/src/assets/filled/chats-dots.svg

<svg width="24" height="24" viewBox="0 0 24 24" fill="none" xmlns="http://www.w3.org/2000/svg">
<path d="M19.9699 20.96L18.03 20.31C17.66 20.19 17.2699 20.19 16.9199 20.35C16.0399 20.76 15.04 21 14 21C12.08 21 10.3339 20.223 9.07491 18.969C8.88491 18.78 9.04691 18.451 9.30391 18.472C14.4699 18.941 18.9449 14.466 18.4699 9.29999C18.4219 9.01399 18.771 8.84598 19.05 9.16998C20.983 11.061 21.5831 14.444 20.3501 16.92C19.9291 17.66 20.7899 19.242 20.9599 19.97C21.1599 20.58 20.5799 21.16 19.9699 20.96ZM10.0009 16.998C8.95893 16.998 7.96286 16.765 7.07686 16.352C6.73486 16.189 6.33786 16.189 5.97286 16.305L4.02901 16.958C3.42301 17.16 2.83897 16.577 3.04097 15.97L3.69405 14.026C3.81105 13.661 3.81093 13.264 3.64693 12.922C3.23493 12.035 3.00093 11.04 3.00093 9.99799C3.00093 6.13299 6.13496 2.99902 9.99996 2.99902C13.865 2.99902 16.999 6.13299 16.999 9.99799C16.999 13.863 13.8659 16.998 10.0009 16.998ZM11.998 10C11.998 10.552 12.4509 11 13.0029 11C13.5559 11 14.0029 10.552 14.0029 10C14.0029 9.448 13.5559 9 13.0029 9H12.9929C12.4409 9 11.998 9.448 11.998 10ZM8.00191 10C8.00191 9.448 7.55491 9 7.00191 9H6.9919C6.4399 9 5.99703 9.448 5.99703 10C5.99703 10.552 6.44991 11 7.00191 11C7.55491 11 8.00191 10.552 8.00191 10ZM10.02 11C10.573 11 11.02 10.552 11.02 10C11.02 9.448 10.573 9 10.02 9H10.01C9.45797 9 9.01485 9.448 9.01485 10C9.01485 10.552 9.46798 11 10.02 11Z" fill="currentColor"/>
</svg>

<svg xmlns="http://www.w3.org/2000/svg" width="24" height="24" fill="none"><path fill="currentColor" d="m19.97 20.96-1.94-.65c-.37-.12-.76-.12-1.11.04-.88.41-1.88.65-2.92.65a6.966 6.966 0 0 1-4.925-2.031c-.19-.189-.028-.518.229-.497 5.166.469 9.64-4.006 9.166-9.172-.048-.286.301-.454.58-.13 1.933 1.891 2.533 5.274 1.3 7.75-.42.74.44 2.322.61 3.05.2.61-.38 1.19-.99.99ZM10 16.998a6.922 6.922 0 0 1-2.923-.646c-.342-.163-.74-.163-1.104-.047l-1.944.653a.784.784 0 0 1-.988-.988l.653-1.944c.117-.365.117-.762-.047-1.104A6.94 6.94 0 0 1 3 9.998a7 7 0 1 1 7 7ZM11.999 10c0 .552.453 1 1.005 1a1 1 0 1 0 0-2h-.01a.996.996 0 0 0-.995 1Zm-3.996 0a1 1 0 0 0-1-1h-.01a.996.996 0 0 0-.995 1c0 .552.453 1 1.005 1a1 1 0 0 0 1-1Zm2.018 1a1 1 0 1 0 0-2h-.01a.996.996 0 0 0-.995 1c0 .552.453 1 1.005 1Z"/></svg>
